X: 21320
T: Kennington
R: jig
M: 6/8
K: Gmajor
B|:BAG ABd|FGA G2A|ABc dBG|EFG AFD|
BAG ABd|FGA G2G,|G,2ddcB|1 AGF G2A:|2 AGF GAB||
|:c2d edc|dcB A2D|B2B cdB|AGA B2A|
c2d edc|dcB AGE|Ddd dcB|1 AGF GAB:|2 AGF G2A||

